!!!SOCIAL_FUNCTION:	songs for children
!!!PDT:	1932
!!!OTL: No_126_Lullaby.krn
!!!REG: Southwest
!!!LANG: Non-Tone
!!!LING_GROUP: Yuman-Cochimi
**kern
*staff1
=1-
*clefF4
*k[b-]
*M3/4
2r
8F\L
8A\J
=2
4.B-\
8A\
8A\L
8G\J
=3
4A\
4r
8r
8B-\
=4
4.A\
8G\
8G\L
8F\J
=5
4G\
4r
12D\L
12D\
12D\J
=6
12G\L
12F\
12G\J
8A\L
8G\J
8F\L
8F\J
=7
4D\
4r
12D\L
12D\
12D\J
=8||
*M2/4
8G\L
8F\J
12G\L
12G\
12F\J
=9
4.A\
8c\
=10
8A\L
8A\J
8G\L
8F\J
=11
4D\
4r
==
*-
